images/menu-delete.svg

<svg xmlns="http://www.w3.org/2000/svg" viewBox="0 0 128 64" enable-background="new 0 0 128 64"><style type="text/css">.st0{fill:#C7CBD7;} .st1{fill:#83868E;}</style><g id="remove"><path class="st0" d="M18.2 52h27.7v-27.7h-27.7v27.7zm21.5-24.6h3.1v21.5h-3.1v-21.5zm-6.2 0h3.1v21.5h-3.1v-21.5zm-6.1 0h3.1v21.5h-3.1v-21.5zm-6.2 0h3.1v21.5h-3.1v-21.5zM39.7 18.2v-6.2h-15.4v6.2h-9.2v3.1h33.8v-3.1h-9.2zm-3.1 0h-9.2v-3.1h9.2v3.1z"/></g><g id="remove_1_"><path class="st1" d="M82.2 52h27.7v-27.7h-27.7v27.7zm21.5-24.6h3.1v21.5h-3.1v-21.5zm-6.2 0h3.1v21.5h-3.1v-21.5zm-6.1 0h3.1v21.5h-3.1v-21.5zm-6.2 0h3.1v21.5h-3.1v-21.5zM103.7 18.2v-6.2h-15.4v6.2h-9.2v3.1h33.8v-3.1h-9.2zm-3.1 0h-9.2v-3.1h9.2v3.1z"/></g></svg>

<?xml version="1.0" encoding="utf-8"?>
<!-- Generator: Adobe Illustrator 21.0.1, SVG Export Plug-In . SVG Version: 6.00 Build 0)  -->
<svg version="1.1" id="Layer_1" xmlns="http://www.w3.org/2000/svg" xmlns:xlink="http://www.w3.org/1999/xlink" x="0px" y="0px"
	 viewBox="0 0 128 64" style="enable-background:new 0 0 128 64;" xml:space="preserve">
<style type="text/css">
	.st0{fill:#C7CBD7;}
	.st1{fill:#83868E;}
</style>
<g id="remove">
	<path class="st0" d="M18.2,52h27.7V24.3H18.2V52z M39.7,27.4h3.1v21.5h-3.1V27.4z M33.5,27.4h3.1v21.5h-3.1V27.4z M27.4,27.4h3.1
		v21.5h-3.1V27.4z M21.2,27.4h3.1v21.5h-3.1V27.4z"/>
	<path class="st0" d="M39.7,18.2V12H24.3v6.2h-9.2v3.1h33.8v-3.1H39.7z M36.6,18.2h-9.2v-3.1h9.2V18.2z"/>
</g>
<g id="remove-disabled">
	<g id="remove_1_">
		<path class="st1" d="M82.2,52h27.7V24.3H82.2V52z M103.7,27.4h3.1v21.5h-3.1V27.4z M97.5,27.4h3.1v21.5h-3.1V27.4z M91.4,27.4h3.1
			v21.5h-3.1V27.4z M85.2,27.4h3.1v21.5h-3.1V27.4z"/>
		<path class="st1" d="M103.7,18.2V12H88.3v6.2h-9.2v3.1h33.8v-3.1H103.7z M100.6,18.2h-9.2v-3.1h9.2V18.2z"/>
	</g>
</g>
</svg>
